X:762
%%etbk:tnset id:492,pos:1,rep:3x,ant:
%%etbk:video src:ytube,cde:1Xm1a35mJt4,desc:
%%etbk:pldat 2016-08-18T19:06,2016-08-17T16:30,2016-08-16T16:34,2016-08-15T19:34,2016-08-12T15:52,2016-08-10T16:50,2016-08-09T15:23,2016-06-09T19:14,2016-06-08T16:29,2016-06-07T16:30,2016-06-04T15:40,2016-06-01T16:48,2016-05-31T17:03,2016-05-30T18:03,2016-05-19T19:09,2016-05-18T17:09,2016-05-17T16:45,2016-05-16T15:07,2016-05-14T16:35,2016-05-13T16:52,2016-05-11T16:40,2016-05-10T18:44,2016-03-02T16:31,2016-03-01T17:18,2016-02-29T18:56,2016-02-27T13:50,2016-02-26T16:56,2016-02-22T18:21,2015-11-19T18:38,2015-11-18T16:44,2015-11-17T16:45,2015-11-15T14:58,2015-11-14T15:29,2015-11-13T18:08,2015-11-11T15:38,2015-11-10T16:24,2015-11-09T18:01,2015-11-08T14:01,2015-11-01T15:09,2015-10-27T17:16,2015-10-24T15:53,2015-10-17T14:15,2015-10-15T18:45,2015-10-14T16:18,2015-10-13T16:09,2015-10-12T18:07,2015-09-29T16:36,2015-09-01T16:57,2015-08-30T15:46,2015-08-26T16:40
T:Norrsken
Z: Piano Box Version by Martin Fleischmann
H: Created 2015-08-26 /  Last Modified 2016-08-09
C:Frigg
R: reel
L:1/8
M:4/4
K:Cmaj
"am" z2 [EA]2 [Gc]2 [Ad]2 | z2 [EA]2 [Gc]2 [Ad]2 | z2 [EA]2 [Gc]2 [Ad]2 | z2 [EA]2 [Gc]2 [Ad]2 ||
|:"am" !1!A z A3 G AB | !3!cBcd !5!e4 | !2!e^f/^g/ aa gefd | e^f/^g/ aa !3!f!1!d!5!e!3!^c |
 A z A3 G AB | cBcd e4 | e^f/^g/ aa gefd |1 !3!^c!1!A!4!B!2!^G !1!A4 :|2 ^cAB^G A3 [d^f]- ||
[K:Amaj] |:"D"!3!fgfe !1!d!3!cBA |"E" !2!B2 Bc"A" A3 f |"D" !3!fgfe dcBA |"E" B2 Bc"A" !1!A3 !1!B/c/ |
"D" !3!dcd!4!e "E"!3!fefg |"f#m"!5!a2 agge e/f/g |"D" afdf !3!f!1!e!3!c!1!A |1"E" B2 ec"A" A3 f :|2 "E" B2 ec"A" A4 |]
|:"^B 2. Stimme" !4!dedc !2!B!1!A!3!GF | !1!E2 EG A3 d | dedc BAGF | E2 EG A3 G/A/ |$ %26
 !2!BABc !4!d!2!c!3!de | !3!f2 fe e!1!B c/d/e | !5!fdAd dcAF |1 E2 EG A3 d :|2 E2 EG A4 |]


